icon-svg/wall-spot.svg

<?xml version="1.0" encoding="UTF-8"?>
<svg width="32px" height="32px" viewBox="0 0 32 32" fill="#44739e" version="1.1" xmlns="http://www.w3.org/2000/svg" xmlns:xlink="http://www.w3.org/1999/xlink">
            <path d="M23.3912327,21.5164172 C21.4842344,22.907399 19.3302363,23.1963953 18.581237,22.1624087 C17.8332377,21.1274222 18.7732368,19.1624479 20.6802351,17.771466 C22.5872334,16.3804841 24.7412315,16.0914879 25.4902308,17.1244744 C26.2392302,18.1604609 25.299231,20.1254353 23.3912327,21.5164172 M27.6152289,16.6014813 L18.8702367,6.59461177 C17.9722375,5.43562689 15.3402399,6.02261923 12.990242,7.90559468 C10.6382441,9.78757013 9.39524519,12.5895336 10.2912444,13.7485185 L11.1672436,14.9995022 L8.97424556,14.9995022 C8.92224561,13.7895179 8.77724574,12.6285331 8.53324596,11.7025452 C8.27524619,10.7315578 7.95524647,10.179565 7.62524677,10.0375669 C7.57124681,10.0115672 7.51224687,9.99956737 7.45324692,9.99956737 L5.54724862,9.99956737 C5.48924867,9.99956737 5.43424872,10.0115672 5.37524877,10.0375669 C5.03224908,10.183565 4.70224937,10.7805572 4.44024961,11.8115437 C3.85325013,14.1395134 3.85325013,17.8674648 4.44024961,20.1924344 C4.70224937,21.223421 5.03224908,21.8164132 5.37524877,21.9624113 C5.43424872,21.988411 5.48924867,21.9994109 5.54724862,21.9994109 L7.45324692,21.9994109 C7.51224687,21.9994109 7.57124681,21.988411 7.62524677,21.9624113 C7.95524647,21.8204132 8.27524619,21.2684204 8.53324596,20.2934331 C8.77724574,19.3684452 8.92124561,18.2084603 8.97424556,16.9994761 L12.5682424,16.9994761 L17.5142379,24.062384 C18.621237,25.6123637 21.7802341,25.1973692 24.5702317,23.137396 C27.3592292,21.0774229 28.722228,18.1504611 27.6152289,16.6014813"></path>
</svg>

<svg xmlns="http://www.w3.org/2000/svg" fill="#44739e" viewBox="0 0 24 24"><path d="M23.3912 21.5164c-1.907 1.391-4.061 1.68-4.81.646-.748-1.035.192-3 2.099-4.391s4.061-1.68 4.81-.647c.749 1.036-.191 3.001-2.099 4.392m4.224-4.915-8.745-10.0068c-.898-1.159-3.53-.572-5.88 1.311-2.352 1.882-3.595 4.684-2.699 5.843l.876 1.2509h-2.193c-.052-1.21-.197-2.371-.441-3.297-.258-.971-.578-1.523-.908-1.665a.396.396 0 0 0-.172-.038h-1.906c-.058 0-.113.012-.172.038-.343.146-.673.743-.935 1.774-.587 2.328-.587 6.056 0 8.381.262 1.031.592 1.624.935 1.77.059.026.114.037.172.037h1.906c.059 0 .118-.011.172-.037.33-.142.65-.694.908-1.669.244-.925.388-2.085.441-3.294h3.594l4.946 7.0629c1.107 1.55 4.266 1.135 7.056-.925 2.789-2.06 4.152-4.987 3.045-6.536"/></svg>
